loleaflet/images/lc_paperformat.svg

<svg viewBox="0 0 24 24" xmlns="http://www.w3.org/2000/svg"><path d="m21 5h-18v14h18z" fill="#fafafa"/><g fill="#1e8bcd" transform="matrix(0 1 -1 0 24 0)"><path d="m7 3h1v18h-1z"/><path d="m16 3h1v18h-1z"/><path d="m5 5h14v1h-14z"/><path d="m4.602187 18h14.397814v1h-14.397814z"/></g><path d="m22 5c0-.554-.446-1-1-1h-18c-.554 0-1 .446-1 1v14c0 .554.446 1 1 1h18c.554 0 1-.446 1-1zm-1 0v14h-18v-14z" fill="#3a3a38"/></svg>

<?xml version="1.0" encoding="UTF-8" standalone="no"?>
<svg
   xmlns:dc="http://purl.org/dc/elements/1.1/"
   xmlns:cc="http://creativecommons.org/ns#"
   xmlns:rdf="http://www.w3.org/1999/02/22-rdf-syntax-ns#"
   xmlns:svg="http://www.w3.org/2000/svg"
   xmlns="http://www.w3.org/2000/svg"
   xmlns:sodipodi="http://sodipodi.sourceforge.net/DTD/sodipodi-0.dtd"
   xmlns:inkscape="http://www.inkscape.org/namespaces/inkscape"
   viewBox="0 0 24 24"
   version="1.1"
   id="svg16"
   sodipodi:docname="lc_paperformat.svg"
   inkscape:version="0.92.5 (2060ec1f9f, 2020-04-08)">
  <metadata
     id="metadata22">
    <rdf:RDF>
      <cc:Work
         rdf:about="">
        <dc:format>image/svg+xml</dc:format>
        <dc:type
           rdf:resource="http://purl.org/dc/dcmitype/StillImage" />
        <dc:title></dc:title>
      </cc:Work>
    </rdf:RDF>
  </metadata>
  <defs
     id="defs20" />
  <sodipodi:namedview
     pagecolor="#ffffff"
     bordercolor="#666666"
     borderopacity="1"
     objecttolerance="10"
     gridtolerance="10"
     guidetolerance="10"
     inkscape:pageopacity="0"
     inkscape:pageshadow="2"
     inkscape:window-width="1366"
     inkscape:window-height="700"
     id="namedview18"
     showgrid="true"
     inkscape:zoom="19.666667"
     inkscape:cx="12.175014"
     inkscape:cy="13.683056"
     inkscape:window-x="0"
     inkscape:window-y="0"
     inkscape:window-maximized="1"
     inkscape:current-layer="svg16">
    <inkscape:grid
       type="xygrid"
       id="grid829" />
  </sodipodi:namedview>
  <path
     d="M 21,5 H 3 v 14 h 18 z"
     id="path2"
     inkscape:connector-curvature="0"
     style="fill:#fafafa" />
  <g
     id="g12"
     transform="rotate(90,12,12)"
     style="fill:#1e8bcd">
    <path
       d="M 7,3 H 8 V 21 H 7 Z"
       id="path4"
       inkscape:connector-curvature="0" />
    <path
       d="m 16,3 h 1 v 18 h -1 z"
       id="path6"
       inkscape:connector-curvature="0" />
    <path
       d="M 5,5 H 19 V 6 H 5 Z"
       id="path8"
       inkscape:connector-curvature="0" />
    <path
       d="m 4.602187,18 h 14.397814 v 1 H 4.602187 Z"
       id="path10"
       inkscape:connector-curvature="0" />
  </g>
  <path
     d="M 22,5 C 22,4.446 21.554,4 21,4 H 3 C 2.446,4 2,4.446 2,5 v 14 c 0,0.554 0.446,1 1,1 h 18 c 0.554,0 1,-0.446 1,-1 z M 21,5 V 19 H 3 V 5 Z"
     id="path14"
     inkscape:connector-curvature="0"
     style="fill:#3a3a38" />
</svg>
